X: 1
P:Lucy Cassidy
C:by G. M. McIntyre (from MacFadyen 2)
C:Arr. by Barbara McOwen
R:Reel
M:4/4
L:1/8
K:Eb
|: ba|"Eb"g2 bg "Bb7"f2 ef|"Eb"gB B2 "Ab"cAAc|"Fm"AceA agfe|"Bb7"defd B2 ba|"Eb"g2 bg "Bb7"f2 ef|"Eb"gB B2 "Ab"cAAc|"Fm"Acec agfd|"Bb7"Bdfd "Eb"e2 :|
|: ga|"Eb"b2 gb bBgb|"Eb7"BbbB "Ab"cAAc|"Fm"Acec agfe|"Bb7"defd B2 ga|"Eb"b2 gb bBgb|"Eb7"BbbB "Ab"cAAc |"Fm"Acec agfe|"Bb7"Bdfd "Eb"e2 :|
